X: 132022
Q: "Scotch Jig."
M: 6/8
L: 1/8
K: G
uB |\
|: ud |\
g2d edB | d2d dba | g2d edB | A2A A2f |\
g2d edB | d>ef g>fe | dcB cBA | G2G G2 :|


